src/img/icons/download.svg

<svg width="32" height="32" viewBox="0 0 32 32" fill="none" xmlns="http://www.w3.org/2000/svg">
<mask id="mask0_27_2450" style="mask-type:alpha" maskUnits="userSpaceOnUse" x="0" y="0" width="32" height="32">
<rect width="32" height="32" fill="#D9D9D9"/>
</mask>
<g mask="url(#mask0_27_2450)">
<path d="M15.995 21.9338C15.8203 21.9338 15.6596 21.9028 15.5129 21.8408C15.3663 21.7789 15.2249 21.6799 15.0888 21.5438L9.76292 16.2179C9.55625 16.0071 9.45458 15.7601 9.45792 15.4771C9.46097 15.194 9.56625 14.9439 9.77375 14.7267C9.99514 14.5094 10.2469 14.4011 10.5292 14.4017C10.8114 14.4025 11.0617 14.5079 11.28 14.7179L14.9529 18.4083V4.54708C14.9529 4.24986 15.0536 4.00111 15.255 3.80083C15.4564 3.60028 15.7064 3.5 16.005 3.5C16.3036 3.5 16.5519 3.60028 16.75 3.80083C16.9481 4.00111 17.0471 4.24986 17.0471 4.54708V18.4083L20.7371 14.7179C20.9399 14.5115 21.1835 14.4117 21.4679 14.4183C21.7521 14.425 22.0064 14.5335 22.2308 14.7438C22.4344 14.9624 22.5361 15.2131 22.5358 15.4958C22.5353 15.7786 22.43 16.025 22.22 16.235L16.9117 21.5433C16.7753 21.6797 16.6321 21.7789 16.4821 21.8408C16.3318 21.9028 16.1694 21.9338 15.995 21.9338ZM6.10667 28.5C5.39056 28.5 4.77708 28.2446 4.26625 27.7337C3.75542 27.2229 3.5 26.6094 3.5 25.8933V21.9529C3.5 21.6557 3.60069 21.4069 3.80208 21.2067C4.00347 21.0061 4.25347 20.9058 4.55208 20.9058C4.85069 20.9058 5.09903 21.0061 5.29708 21.2067C5.49514 21.4069 5.59417 21.6557 5.59417 21.9529V25.8933C5.59417 26.0214 5.6475 26.1389 5.75417 26.2458C5.86111 26.3525 5.97861 26.4058 6.10667 26.4058H25.8933C26.0214 26.4058 26.1389 26.3525 26.2458 26.2458C26.3525 26.1389 26.4058 26.0214 26.4058 25.8933V21.9529C26.4058 21.6557 26.5065 21.4069 26.7079 21.2067C26.9093 21.0061 27.1593 20.9058 27.4579 20.9058C27.7565 20.9058 28.0049 21.0061 28.2029 21.2067C28.401 21.4069 28.5 21.6557 28.5 21.9529V25.8933C28.5 26.6094 28.2446 27.2229 27.7337 27.7337C27.2229 28.2446 26.6094 28.5 25.8933 28.5H6.10667Z" fill="#131212"/>
</g>
</svg>

<svg xmlns="http://www.w3.org/2000/svg" width="32" height="32" fill="none" viewBox="0 0 32 32">
  <mask id="a" width="32" height="32" x="0" y="0" maskUnits="userSpaceOnUse" style="mask-type:alpha">
    <path fill="#D9D9D9" d="M0 0h32v32H0z"/>
  </mask>
  <g mask="url(#a)">
    <path fill="currentColor" d="M15.995 21.934c-.175 0-.335-.031-.482-.093a1.347 1.347 0 0 1-.424-.297l-5.326-5.326a1.006 1.006 0 0 1-.305-.74 1.07 1.07 0 0 1 .316-.751 1.041 1.041 0 0 1 1.506-.009l3.673 3.69V4.548c0-.298.1-.547.302-.747.201-.2.451-.301.75-.301s.547.1.745.3c.198.201.297.45.297.747v13.861l3.69-3.69a.955.955 0 0 1 .73-.3c.285.007.54.116.764.326.203.218.305.47.305.752 0 .283-.106.529-.316.739l-5.308 5.308a1.33 1.33 0 0 1-.43.298c-.15.062-.313.093-.487.093ZM6.107 28.5a2.51 2.51 0 0 1-1.84-.766 2.51 2.51 0 0 1-.767-1.84v-3.941c0-.297.1-.546.302-.746.201-.2.451-.301.75-.301s.547.1.745.3c.198.2.297.45.297.747v3.94a.49.49 0 0 0 .16.353.49.49 0 0 0 .353.16h19.786a.49.49 0 0 0 .353-.16.49.49 0 0 0 .16-.353v-3.94c0-.297.1-.546.302-.746.201-.2.451-.301.75-.301s.547.1.745.3c.198.2.297.45.297.747v3.94a2.51 2.51 0 0 1-.766 1.84 2.51 2.51 0 0 1-1.84.767H6.106Z"/>
  </g>
</svg>
